X:1
T:Title
%%score { ( 1 3 ) | ( 2 4 ) }
L:1/8
M:2/2
K:C
V:1 treble nm="Grand Piano"
V:3 treble 
V:2 bass 
V:4 bass 
V:1
 z4 z2[Q:1/4=110] G2 | [Ec]3 [Ec] [Fc]2 [Fc]2 | [Ec]2 G2 E2 F2 | G3 A G2 [G,B,F]2 | %4
 [G,CE]2 [G,DF]2 [CEG]2 [CEG]2 | [CFA]3 [CFA] [DGB]2 [DGB]2 | [CGc]2 [CGc]2 [CEc]2 [CEc]2 | %7
 [D^Fc]3 [CFA] [B,FB]2 [Fc]2 | [Fd]6 [FG]2 | [Ec]3 [Ec] [Fc]2 [Fc]2 | [Ec]2 G2 E2 F2 | %11
 G3 A G2 [G,B,F]2 | [G,CE]2 [G,DF]2 [CEG]2 [CEG]2 | [CFA]3 [CFA] [E^GB]2 [EGB]2 | %14
 [EAc]2 [EGc]2 [^Fc]>[FB][Fc]>[Fd] | z4 d4 |[M:3/4] [Ec]6 |[M:1/4] G2 |[M:4/4] c6 z2 | G6 z2 | %20
 [EG]2 [DF]2 [DF]3 [FA] | [FA]2 [EG]2 [EG]2 G2 | c6 z2 | G6 z2 | [GB]2 [GB]2 [^Fc]2 [FA]2 | d6 G2 | %26
 c6 z2 | G6 z2 | [EG]2 [DF]2 [DF]3 [FA] | [FA]2 [EG]2 [EG]2 [EG]2 | [FA]4 [^GB]3 [GB] | %31
 [Ac]2 [Gc]2 [^Fc]>[FB] [Fc]>[Fd] | z4 d4 |[M:3/4] [Ec]6 |] %34
V:2
 z4 z2 G,2 | [C,G,]3 [C,G,] [C,A,]2 [C,A,]2 | [C,G,]2 G,2 E,2 F,2 | G,3 A, G,2 G,,2 | %4
 C,2 C,2 C,2 C,2 | F,3 F, F,2 F,2 | E,2 E,2 A,2 A,2 | D,3 D, D,2 [D,A,]2 | [G,B,]6 [G,B,]2 | %9
 [C,G,]3 [C,G,] [C,A,]2 [C,A,]2 | [C,G,]2 G,2 E,2 F,2 | G,3 A, G,2 G,,2 | C,2 C,2 C,2 C,2 | %13
 F,3 F, E,2 E,2 | A,2 A,2 [D,D]>[D,D][D,D]>[D,C] | G8 |[M:3/4] [C,C]6 |[M:1/4] z2 | %18
[M:4/4] z2 [C,G,]>[C,G,] [C,G,]2 [C,C]>[C,C] | [C,C]2 [C,C]2 [C,C]2 [C,G,C]2 | %20
 [G,,G,]2 [G,,G,]2 [G,,G,]3 [G,B,] | [C,C]2 [C,C]2 [C,C]2 z2 | %22
 z2[K:treble] [A,C]>[A,C] [A,C]2 [B,_E^F]>[B,EF] | %23
 [E,E]2 [E,B,]2 [E,B,]2[K:treble] [A,^CE]>[A,CG] | [D,D]2 [D,D]2 [D,A,]2 [D,C]2 | [G,B,F]6 z2 | %26
 z2[K:bass] [C,G,]>[C,G,] [C,G,]2 [C,C]>[C,C] | [C,C]2 [C,C]2 [C,C]2 [C,G,C]2 | %28
 [G,,G,]2 [G,,G,]2 [G,,G,]3 [G,B,] | [C,C]2 [C,C]2 [C,C]2 [C,C]2 | [F,C]4 [E,E]3 [E,E] | %31
 [A,E]2 [A,E]2 [D,D]>[D,D] [D,D]>[D,C] | G6 z2 |[M:3/4] [C,C]6 |] %34
V:3
 x8 | x8 | x8 | x8 | x8 | x8 | x8 | x8 | x8 | x8 | x8 | x8 | x8 | x8 | x8 | e4 z2 F2 |[M:3/4] x6 | %17
[M:1/4] x2 |[M:4/4] z2 E>E E2 [GB]>[FA] | E2 E2 E2 E2 | x8 | x8 | z2 E>E E2 B>A | z2 E2 E2 G>A | %24
 x8 | x8 | z2 E>E E2 [GB]>[FA] | E2 E2 E2 E2 | x8 | x8 | x8 | x8 | e4 z2 F2 |[M:3/4] x6 |] %34
V:4
 x8 | x8 | x8 | x8 | x8 | x8 | x8 | x8 | x8 | x8 | x8 | x8 | x8 | x8 | x8 | [G,C]4 [G,,G,B,]4 | %16
[M:3/4] x6 |[M:1/4] x2 |[M:4/4] x8 | x8 | x8 | x8 | x2[K:treble] x6 | x6[K:treble] x2 | x8 | x8 | %26
 x2[K:bass] x6 | x8 | x8 | x8 | x8 | x8 | [G,C]4 [G,,G,B,]4 |[M:3/4] x6 |] %34

